X: 423
T: A Trip To The Cottage
R: jig
M: 6/8
K: Gmajor
ded ~B3|cBc AFD|DGG FGA|~B3 ABc|
dgd BAB|cBc AFD|DGG FGA|1 BGF GBc:|2 BGF GBd||
gfe d^cd|edc Bcd|ecA dBG|FAG FED|
gfe d^cd|edc Bcd|efg eag|1 fd^c def:|2 fd^c dB=c||

